X:1
T:Title
%%score { ( 1 4 ) | ( 2 3 ) }
L:1/8
M:4/4
K:E
V:1 treble nm="Grand Piano"
V:4 treble 
V:2 bass 
V:3 bass 
V:1
 z4 z2[Q:1/4=100] G2 | G2 G2 GEFG | A4 G2 [B,EG]2 | [B,EG]2 [A,EF]E [A,DF]2 [B,DG]2 | E6 B2 | %5
 B2 B2 BGAB | c4 B2 G2 | F3 B ^A2 c2 | [B,B]8 | [B,GB]2 [B,GB]2 [B,GB]2 [FA][EG] | [FA]8[K:bass] | %11
 [FA]2 [FA]2 [FA]2 [EG][DF] | [EG]8 | B3 B e2 d2 | d4 c4 | B3 G [EG]2 [DF]2 |[M:3/4] E6 |] %17
V:2
 z4 z2 [E,B,E]2 | z4 z2 E2 | C4 z4 | B,,2 z G, B,,2 B,,2 | [E,G,]6 [E,G,E]2 | %5
 [E,G,E]2 [E,G,E]2 [E,G,E][E,E][E,F,E][E,G,E] | [E,E]4- [E,G,E]2 [E,B,E]2 | %7
 [F,B,D]3 [F,D] [F,C]2 [F,^A,E]2 | z[K:treble] EFG A4 | E,2 E,2 E,2 [E,B,]2 | [B,,B,]B,,D,E, B,4 | %11
 [B,,B,]2 [B,,B,]2 [B,,B,]2 [B,,B,]2 | [E,B,]E,G,B, E,4 | [G,B,E]3 [G,B,E] [G,B,E]2 [G,B,E]2 | %14
 [A,E]8 | [B,EG]3[K:bass] [B,E] [B,,B,]2 [B,,A,]2 |[M:3/4] [E,G,]6 |] %17
V:3
 x8 | [E,B,E]2 [E,B,E]2 [E,B,E][E,G,][E,A,][E,B,] | [E,E]4- [E,B,E]2 E,2 | z2 B,,2 z4 | x8 | x8 | %6
 A,4 z4 | x8 | B,,8[K:treble] | x8 | x8 | x8 | x8 | x8 | x8 | x3[K:bass] x5 |[M:3/4] x6 |] %17
V:4
 x8 | x8 | x8 | x8 | x8 | x8 | x8 | x8 | .D2 z2 z4 | x8 | z[K:bass] B,B,B, z4 | x8 | %12
 z B, .B,2 B,4 | x8 | x8 | x8 |[M:3/4] x6 |] %17

